source/assets/images/icons/edition-hand_pulled.svg

<?xml version="1.0" encoding="UTF-8" standalone="no"?>
<svg width="18px" height="16px" viewBox="0 0 18 16" version="1.1" xmlns="http://www.w3.org/2000/svg" xmlns:xlink="http://www.w3.org/1999/xlink" xmlns:sketch="http://www.bohemiancoding.com/sketch/ns">
    <!-- Generator: Sketch 3.2.2 (9983) - http://www.bohemiancoding.com/sketch -->
    <title>edition-hand_pulled</title>
    <desc>Created with Sketch.</desc>
    <defs></defs>
    <g id="assets/icons" stroke="none" stroke-width="1" fill="none" fill-rule="evenodd" sketch:type="MSPage">
        <path d="M18,0 L11.45,0 L11.45,1.76 C12.05,1.82857143 12.65,1.87428571 13.225,1.89714286 L13.225,6.88 L4.85,6.88 L4.85,1.89714286 C5.4,1.87428571 5.975,1.82857143 6.575,1.76 L6.575,0 L0,0 L0,1.76 C0.725,1.82857143 1.425,1.89714286 2.125,1.92 L2.125,14.08 C1.45,14.1257143 0.725,14.1714286 0,14.24 L0,16 L6.575,16 L6.575,14.24 C5.975,14.1714286 5.4,14.1257143 4.85,14.1028571 L4.85,8.96 L13.225,8.96 L13.225,14.1028571 C12.65,14.1257143 12.05,14.1714286 11.45,14.24 L11.45,16 L18,16 L18,14.24 C17.3,14.1714286 16.6,14.1257143 15.925,14.08 L15.925,1.92 C16.6,1.89714286 17.3,1.82857143 18,1.76 L18,0 Z" id="edition-hand_pulled" fill="#474747" sketch:type="MSShapeGroup"></path>
    </g>
</svg>

<svg width="18" height="16" viewBox="0 0 18 16" xmlns="http://www.w3.org/2000/svg"><title>edition-hand_pulled</title><path d="M18 0h-6.55v1.76c.6.07 1.2.114 1.775.137V6.88H4.85V1.897c.55-.023 1.125-.068 1.725-.137V0H0v1.76c.725.07 1.425.137 2.125.16v12.16c-.675.046-1.4.09-2.125.16V16h6.575v-1.76c-.6-.07-1.175-.114-1.725-.137V8.96h8.375v5.143c-.575.023-1.175.068-1.775.137V16H18v-1.76c-.7-.07-1.4-.114-2.075-.16V1.92C16.6 1.897 17.3 1.83 18 1.76V0z" fill="#474747" fill-rule="evenodd"/></svg>
